X: 95
T:Paddy Carty's Jig
R:Jig
S:Treoir, 1993 (from Jimmy McHugh)
M:6/8
L:1/8
Q:3/8=120
K:G
A|:Bee B^cd|ABG FED|{A}GFG AGA|{d}B2A B^cd|
Bee B^cd|ABG {G}FEF|DFA dAF|EFE E2G:|
|:BEF G2A|BAG FED|BEF G2A|B2A Bed|
BEF G2A BAG {G}FEF|DFA dAF|EFE E2:|
